app/dist/common/images/goodrx.svg

<svg height="18" width="18" xmlns="http://www.w3.org/2000/svg"><path d="m0 0h18v18h-18z" fill="#f9e548"/><path d="m8.24 7.5c.53 0 1.76-.01 1.76-1.21 0-1.17-1-1.29-1.72-1.29h-2.28v2.5zm-2.24 1v3.5h-1v-8h3.26c1.44 0 2.74.53 2.74 2.25 0 1.02-.51 1.74-1.25 2.1.44.17.74.51.9.97.07.21 1.86 3.98 1.91 4.1.07.19.32.49.44.58h-1.13c-.12-.1-.25-.32-.37-.58-.1-.27-2.03-4.09-2.13-4.23a1.9 1.9 0 0 0 -1.43-.69z"/><path d="m13 8.52c-.15.08-.28.2-.38.34s-2.5 4.22-2.65 4.5c-.12.24-.24.5-.37.64h-1.17v-.1c.08-.06.33-.27.44-.52.05-.13 2.4-4.19 2.52-4.39.15-.25.15-.25.29-.44.13-.18 1.06-.15 1.32-.15z"/></svg>

<!-- by TradingView --><svg xmlns="http://www.w3.org/2000/svg" width="18" height="18"><path fill="#F9E548" d="M0 0h18v18H0z"/><path d="M8.24 7.5c.53 0 1.76-.01 1.76-1.21C10 5.12 9 5 8.28 5H6v2.5h2.24zM6 8.5V12H5V4h3.26C9.7 4 11 4.53 11 6.25c0 1.02-.51 1.74-1.25 2.1.44.17.74.51.9.97.07.21 1.86 3.98 1.91 4.1.07.19.32.49.44.58h-1.13c-.12-.1-.25-.32-.37-.58-.1-.27-2.03-4.09-2.13-4.23a1.9 1.9 0 00-1.43-.69H6z"/><path d="M13 8.52c-.15.08-.28.2-.38.34-.1.14-2.5 4.22-2.65 4.5-.12.24-.24.5-.37.64H8.43v-.1c.08-.06.33-.27.44-.52.05-.13 2.4-4.19 2.52-4.39.15-.25.15-.25.29-.44.13-.18 1.06-.15 1.32-.15v.12z"/></svg>
